X: 31233
T: Paddy Fahey's
R: reel
M: 4/4
K: Gmajor
BGPG2 Bcdc|BGBd c3d|BGPG2 Bcdg|fgaf gfdc|
BGPG2 Bcdc|BGBd c3d|BGPG2 Bcdg|fgaf g3a||
bgaf dgPg2|fdcA BGG2|bgaf gfdc|Agfa g3a|
bgaf dgg2|fdcA FGAc|BGPG2 Bcdg|fgaf gfdc||
BGPG2 Bcdc|BGBd c3d|BGPG2 Bcdg|fgaf gfdc|
BGPG2 G/A/GBd|cAFA DFAc|BGFG Bcdg|fgaf g3a||
bgaf dgPg2|fdcA BGG2|bgaf gfdc|Agfa g3a|
bgaf dgg2|fdcA FGAc|BGPG2 Bcdg|fgaf gfdc||

